X:25
T:Possum up a Gum Stump
Z:abc-transcription Josh Larios <hades@elsewhere.org>, 2017.02.14
Z:abc-copyright This transcription is licensed under a Creative Commons Attribution-ShareAlike 4.0 International License.
G:Key: G
M:C|
K:G
[P:A]y0 |: B,A, | "G"G,2G,A, B,G,A,B, | "C"CB,CD EFGE | "G"D2DE DCB,G, | "D"A,3B, A,2B,A, |
|"G"G,2G,A, B,G,A,B, | "C"CB,CD EFGE | "D7"DEFG AcBA | "G"G2GF  G2 :|
[P:B]y |: (3DEF | "G"G2BG AGB2 | "C"G2cG BGc2 | "G"G2BG AGB2 | "D7"F2 d4D2 |
|"G"G2D2 B,2G,2 | "C"CB,CD EFGE | "D7"DEFG AcBA | "G"G2GF G2 :|

